icons/diff-ignored-16.svg

<svg width="16" height="16" viewBox="0 0 16 16" fill="none" xmlns="http://www.w3.org/2000/svg">
<path fill-rule="evenodd" clip-rule="evenodd" d="M2.75 2.5H13.25C13.3881 2.5 13.5 2.61193 13.5 2.75V13.25C13.5 13.3881 13.3881 13.5 13.25 13.5H2.75C2.61193 13.5 2.5 13.3881 2.5 13.25V2.75C2.5 2.61193 2.61193 2.5 2.75 2.5ZM13.25 1H2.75C1.7835 1 1 1.7835 1 2.75V13.25C1 14.2165 1.7835 15 2.75 15H13.25C14.2165 15 15 14.2165 15 13.25V2.75C15 1.7835 14.2165 1 13.25 1ZM11.2803 5.78033C11.5732 5.48744 11.5732 5.01256 11.2803 4.71967C10.9874 4.42678 10.5126 4.42678 10.2197 4.71967L4.71967 10.2197C4.42678 10.5126 4.42678 10.9874 4.71967 11.2803C5.01256 11.5732 5.48744 11.5732 5.78033 11.2803L11.2803 5.78033Z" fill="#24292E"/>
</svg>

<svg xmlns="http://www.w3.org/2000/svg" width="16" height="16" viewBox="0 0 16 16"><path fill-rule="evenodd" d="M2.75 2.5h10.5a.25.25 0 01.25.25v10.5a.25.25 0 01-.25.25H2.75a.25.25 0 01-.25-.25V2.75a.25.25 0 01.25-.25zM13.25 1H2.75A1.75 1.75 0 001 2.75v10.5c0 .966.784 1.75 1.75 1.75h10.5A1.75 1.75 0 0015 13.25V2.75A1.75 1.75 0 0013.25 1zm-1.97 4.78a.75.75 0 00-1.06-1.06l-5.5 5.5a.75.75 0 101.06 1.06l5.5-5.5z"/></svg>
